app/assets/svg/shapes/asterisk.svg

<svg width="24" height="24" viewBox="0 0 24 24" fill="none" xmlns="http://www.w3.org/2000/svg">
<path d="M2.18182 9.88184C0.976834 9.88184 -5.26715e-08 10.8587 0 12.0637C5.26717e-08 13.2686 0.976833 14.2455 2.18182 14.2455H6.67378L3.46789 17.4514C2.61584 18.3034 2.61584 19.6849 3.46789 20.5369C4.31994 21.389 5.70139 21.389 6.55345 20.5369L9.75403 17.3363V21.8182C9.75403 23.0232 10.7309 24 11.9358 24C13.1408 24 14.1177 23.0232 14.1177 21.8182V17.203L17.4031 20.4885C18.2552 21.3405 19.6366 21.3405 20.4887 20.4885C21.3408 19.6364 21.3408 18.255 20.4887 17.4029L17.3313 14.2455H21.8182C23.0232 14.2455 24 13.2686 24 12.0637C24 10.8587 23.0232 9.88184 21.8182 9.88184H17.2085L20.4384 6.65191C21.2905 5.79986 21.2905 4.41841 20.4385 3.56636C19.5864 2.7143 18.2049 2.7143 17.3529 3.56635L14.1177 6.80158V2.18182C14.1177 0.976833 13.1408 -5.26707e-08 11.9358 0C10.7309 5.26725e-08 9.75403 0.976833 9.75403 2.18182V6.66824L6.60369 3.51791C5.75164 2.66586 4.37019 2.66586 3.51814 3.51791C2.66608 4.36996 2.66608 5.75141 3.51814 6.60347L6.79651 9.88184H2.18182Z" fill="#FFD371"/>
</svg>

<svg width="24" height="24" viewBox="0 0 24 24" fill="none" xmlns="http://www.w3.org/2000/svg">
    <path d="M2.182 9.882a2.182 2.182 0 0 0 0 4.364h4.492L3.468 17.45a2.182 2.182 0 1 0 3.085 3.086l3.201-3.2v4.481a2.182 2.182 0 0 0 4.364 0v-4.615l3.285 3.285a2.182 2.182 0 0 0 3.086-3.085l-3.158-3.157h4.487a2.182 2.182 0 0 0 0-4.364h-4.61l3.23-3.23a2.182 2.182 0 1 0-3.085-3.086l-3.235 3.236v-4.62a2.182 2.182 0 0 0-4.364 0v4.486l-3.15-3.15a2.182 2.182 0 1 0-3.086 3.085l3.279 3.279H2.182Z" fill="#FFD371"/>
</svg>
